assets/img/3user.svg

<svg width="20" height="20" viewBox="0 0 20 20" fill="none" xmlns="http://www.w3.org/2000/svg">
<path fill-rule="evenodd" clip-rule="evenodd" d="M14.9056 10.122C14.599 10.122 14.3315 9.89621 14.2873 9.58371C14.2398 9.24121 14.4773 8.92538 14.8198 8.87788C15.6865 8.75621 16.3406 8.00455 16.3423 7.12788C16.3423 6.25871 15.719 5.52371 14.8598 5.38288C14.5198 5.32705 14.289 5.00538 14.3448 4.66455C14.4015 4.32371 14.7206 4.09538 15.0631 4.14955C16.5281 4.39038 17.5923 5.64371 17.5923 7.12955C17.589 8.62538 16.4715 9.90871 14.9923 10.1162C14.9631 10.1204 14.934 10.122 14.9056 10.122Z" fill="#130F26"/>
<mask id="mask0_1211_1437" style="mask-type:luminance" maskUnits="userSpaceOnUse" x="15" y="11" width="4" height="5">
<path fill-rule="evenodd" clip-rule="evenodd" d="M15.8152 11.668H18.9768V15.4426H15.8152V11.668Z" fill="white"/>
</mask>
<g mask="url(#mask0_1211_1437)">
<path fill-rule="evenodd" clip-rule="evenodd" d="M17.3846 15.4426C17.1329 15.4426 16.8954 15.2893 16.8004 15.0401C16.6771 14.7176 16.8396 14.3559 17.1621 14.2334C17.7271 14.0184 17.7271 13.7809 17.7271 13.6668C17.7271 13.3018 17.2629 13.0468 16.3479 12.9101C16.0071 12.8584 15.7712 12.5409 15.8221 12.1984C15.8729 11.8568 16.1896 11.6293 16.5337 11.6734C18.5529 11.9759 18.9771 12.9243 18.9771 13.6668C18.9771 14.1201 18.7987 14.9476 17.6071 15.4018C17.5337 15.4293 17.4587 15.4426 17.3846 15.4426Z" fill="#130F26"/>
</g>
<path fill-rule="evenodd" clip-rule="evenodd" d="M9.90578 13.2615C7.92577 13.2615 5.56494 13.5048 5.56494 14.6631C5.56494 15.8306 7.92577 16.0756 9.90578 16.0756C11.8858 16.0756 14.2458 15.8331 14.2458 14.6773C14.2458 13.5073 11.8858 13.2615 9.90578 13.2615ZM9.90578 17.3256C8.52327 17.3256 4.31494 17.3256 4.31494 14.6631C4.31494 12.0115 8.52327 12.0115 9.90578 12.0115C11.2883 12.0115 15.4958 12.0115 15.4958 14.6773C15.4958 17.3256 11.4349 17.3256 9.90578 17.3256Z" fill="#130F26"/>
<path fill-rule="evenodd" clip-rule="evenodd" d="M9.90558 4.58325C8.49558 4.58325 7.34891 5.73075 7.34891 7.14075C7.34641 7.82409 7.60808 8.46325 8.08724 8.94575C8.56641 9.42825 9.20474 9.69575 9.88474 9.69825L9.90558 10.3233V9.69825C11.3156 9.69825 12.4631 8.55159 12.4631 7.14075C12.4631 5.73075 11.3156 4.58325 9.90558 4.58325ZM9.90558 10.9483H9.88308C8.86641 10.9449 7.91391 10.5466 7.20058 9.82659C6.48558 9.10742 6.09474 8.15242 6.09891 7.13825C6.09891 5.04159 7.80641 3.33325 9.90558 3.33325C12.0056 3.33325 13.7131 5.04159 13.7131 7.14075C13.7131 9.23992 12.0056 10.9483 9.90558 10.9483Z" fill="#130F26"/>
<path fill-rule="evenodd" clip-rule="evenodd" d="M4.90483 10.122C4.87649 10.122 4.84733 10.1203 4.81816 10.1161C3.33899 9.90863 2.22233 8.62529 2.21899 7.13113C2.21899 5.64363 3.28316 4.39029 4.74816 4.14946C5.09899 4.09446 5.40983 4.32529 5.46649 4.66446C5.52233 5.00529 5.29149 5.32696 4.95149 5.38279C4.09233 5.52363 3.46899 6.25863 3.46899 7.12946C3.47066 8.00446 4.12483 8.75696 4.99066 8.87779C5.33316 8.92529 5.57066 9.24113 5.52316 9.58363C5.47899 9.89613 5.21149 10.122 4.90483 10.122Z" fill="#130F26"/>
<path fill-rule="evenodd" clip-rule="evenodd" d="M2.42683 15.4427C2.35266 15.4427 2.27766 15.4293 2.20433 15.4018C1.01183 14.9468 0.833496 14.1193 0.833496 13.6668C0.833496 12.9252 1.25766 11.976 3.27766 11.6735C3.62183 11.6302 3.93683 11.8568 3.9885 12.1985C4.03933 12.541 3.8035 12.8585 3.46266 12.9102C2.54766 13.0468 2.0835 13.3018 2.0835 13.6668C2.0835 13.781 2.0835 14.0177 2.64933 14.2335C2.97183 14.356 3.13433 14.7177 3.011 15.0402C2.916 15.2893 2.6785 15.4427 2.42683 15.4427Z" fill="#130F26"/>
</svg>

<svg xmlns="http://www.w3.org/2000/svg" width="20" height="20" fill="none"><path fill="#130F26" fill-rule="evenodd" d="M14.906 10.122a.626.626 0 0 1-.086-1.244 1.78 1.78 0 0 0 1.522-1.75c0-.87-.623-1.604-1.482-1.745a.625.625 0 0 1 .203-1.233 3.01 3.01 0 0 1 2.53 2.98 3.035 3.035 0 0 1-2.6 2.986 1 1 0 0 1-.087.006" clip-rule="evenodd"/><mask id="a" width="4" height="5" x="15" y="11" maskUnits="userSpaceOnUse" style="mask-type:luminance"><path fill="#fff" fill-rule="evenodd" d="M15.815 11.668h3.162v3.775h-3.162z" clip-rule="evenodd"/></mask><g mask="url(#a)"><path fill="#130F26" fill-rule="evenodd" d="M17.385 15.443a.625.625 0 0 1-.223-1.21c.565-.215.565-.452.565-.566 0-.365-.464-.62-1.38-.757a.626.626 0 0 1-.525-.712.63.63 0 0 1 .712-.525c2.019.303 2.443 1.251 2.443 1.994 0 .453-.178 1.28-1.37 1.735a.6.6 0 0 1-.222.04" clip-rule="evenodd"/></g><path fill="#130F26" fill-rule="evenodd" d="M9.906 13.262c-1.98 0-4.341.243-4.341 1.401 0 1.168 2.36 1.413 4.34 1.413s4.34-.243 4.34-1.399c0-1.17-2.36-1.415-4.34-1.415m0 4.064c-1.383 0-5.591 0-5.591-2.663 0-2.652 4.208-2.652 5.59-2.652 1.383 0 5.59 0 5.59 2.666 0 2.649-4.06 2.649-5.59 2.649M9.906 4.583a2.56 2.56 0 0 0-2.557 2.558c-.003.683.26 1.322.738 1.805a2.53 2.53 0 0 0 1.798.752l.02.625v-.625a2.56 2.56 0 0 0 2.558-2.557 2.56 2.56 0 0 0-2.557-2.558m0 6.365h-.023a3.77 3.77 0 0 1-2.682-1.121 3.77 3.77 0 0 1-1.102-2.689 3.81 3.81 0 0 1 3.807-3.805c2.1 0 3.807 1.709 3.807 3.808s-1.707 3.807-3.807 3.807M4.905 10.122a1 1 0 0 1-.087-.006A3.034 3.034 0 0 1 2.22 7.131a3.01 3.01 0 0 1 2.53-2.982.625.625 0 0 1 .203 1.233c-.86.142-1.483.877-1.483 1.747a1.776 1.776 0 0 0 1.522 1.749.625.625 0 0 1-.086 1.244M2.427 15.443a.6.6 0 0 1-.223-.041c-1.192-.455-1.37-1.283-1.37-1.735 0-.742.424-1.691 2.444-1.993a.63.63 0 0 1 .71.524.627.627 0 0 1-.525.712c-.915.137-1.38.392-1.38.757 0 .114 0 .35.566.566a.625.625 0 0 1-.222 1.21" clip-rule="evenodd"/></svg>
